X:1
T:Îò÷å íàø
T:Îò÷å íàø
T:Êåäðîâà-îòöà
C:Êåäðîâà-îòöà
%%score [ ( 1 2 ) ( 3 4 5 ) ]
L:1/8
Q:1/4=120
M:none
K:G
V:1 treble-8 nm="Tenor" snm="T"
V:2 treble-8 
V:3 bass nm="Bass" snm="B"
V:4 bass 
V:5 bass 
V:1
 B4 B2 B8 B2 B2 B2 B2 B2 B2 B2 c8 c2 c2 c2 c2 d4 | %1
w: O- che nash, i- zhe je- si na nje- bje- sjeh, da sfja- tit- sja i-|
 d2 d2 d4 d2 d2 d2 d2 d6 c2 c2 B2 c6 c2 c4 c4 c4 B2 d2 | %2
w: mja tfo- je, da pri- i- djet tsar- stfi- je tfo- je, da bu- djet vool- ja tfo-|
 A8 A4 A2 A2 A2 B2 c6 B2 A4 G4 A8 B4 B2 B2 B2 B2 c4 | %3
w: ja, ja- ko na nje- bje- si, i na zjem- li. Hljeb nasj na- su- shnij dazh|
 c2 c4 c2 c2 d4 d2 d2 d2 d2 d4 c4 c6 c2 B2 d2 A4 | A2 B2 c4 c2 c2 c2 (B6 G2) (A4 G4) A8 | %5
w: nam dnjes, i o- sta- vi nam dol- gi na- sja, ja- ko zhe i my|o- sta- vlja- jem dol- zhni- kom _ na- * shim.|
 z2 B2 B2 B2 (B4 d4) | g2 g2 f2 e2 | d4 c4 | B4 A2 A2 | d6 A2 | d4 G2 A2 | B8 | B8 | B8 |] [FB]8 | %15
w: I nje vje- di _|nas vo is- ku-|she- ni-|je, no iz-|ba- vi|nas ot lu-|ka-|va-|go.|A-|
 [GB]8 |] %16
w: min.|
V:2
 G4 G2 G8 G2 G2 G2 G2 G2 G2 G2 (G4 F4) F2 F2 F2 F2 A4 | %1
 G2 G2 G4 G2 G2 G2 G2 G6 G2 G2 G2 G6 G2 G4 G4 G4 G2 G2 | %2
 F8 F4 F2 F2 F2 G2 G6 G2 F4 E4 F8 G4 G2 G2 G2 G2 G4 | %3
 F2 F4 F2 F2 A4 G2 G2 G2 G2 G4 G4 G6 G2 G2 G2 F4 | F2 G2 G4 G2 G2 G2 (G6 E2) (F4 E4) F8 | %5
 z2 G2 G2 G2 (G4 B4) | B2 B2 B2 c2 | (d2 G2) (G2 F2) | G4 G2 G2 | G6 G2 | G4 G2 G2 | (G4 E4) | F8 | %13
 G8 |] x8 | x8 |] %16
V:3
 x48 | x52 | x60 | x46 | x38 | x16 | x8 | x8 | x8 | x8 | x8 | x8 | D,,8 | x8 |] [D,,D,]8 | %15
 [G,,D,]8 |] %16
V:4
 D,4 D,2 D,8 D,2 D,2 D,2 D,2 D,2 D,2 D,2 D,8 D,2 D,2 D,2 D,2 D,4 | %1
 D,2 D,2 D,4 D,2 D,2 G,2 =F,2 F,6 E,2 E,2 D,2 E,6 E,2 E,4 E,4 E,4 D,2 D,2 | %2
 D,8 D,4 D,2 D,2 D,2 D,2 E,6 D,2 D,4 B,,4 D,8 D,4 D,2 D,2 D,2 D,2 D,4 | %3
 D,2 D,4 D,2 D,2 D,4 D,2 D,2 G,2 =F,2 F,4 E,4 E,6 E,2 D,2 D,2 D,4 | %4
 D,2 D,2 E,4 E,2 E,2 E,2 D,8 (D,4 B,,4) D,8 | z2 D,2 D,2 D,2 G,8 | G,2 G,2 G,2 G,2 | %7
 (G,2 D,2) D,4 | D,4 E,2 E,2 | D,6 E,2 | D,4 E,2 E,2 | (D,4 B,,4) | D,8 | D,8 |] x8 | x8 |] %16
V:5
 G,,4 G,,2 G,,8 G,,2 G,,2 G,,2 G,,2 G,,2 G,,2 G,,2 A,,8 A,,2 A,,2 A,,2 A,,2 B,,4 | %1
 B,,2 B,,2 B,,4 B,,2 B,,2 B,,2 B,,2 C,6 C,2 C,2 C,2 C,6 C,2 C,4 B,,4 A,,4 B,,2 B,,2 | %2
 D,8 D,4 D,2 D,2 D,2 B,,2 A,,6 B,,2 D,4 B,,4 [D,,D,]8 G,,4 G,,2 G,,2 G,,2 G,,2 A,,4 | %3
 A,,2 A,,4 A,,2 A,,2 B,,4 B,,2 B,,2 B,,2 B,,2 C,4 (C,2 B,,2) A,,6 A,,2 B,,2 B,,2 D,4 | %4
 D,2 B,,2 A,,4 A,,2 A,,2 A,,2 B,,8 D,4 B,,4 [D,,D,]8 | z2 G,,2 G,,2 G,,2 (G,4 F,4) | %6
 E,2 E,2 D,2 C,2 | B,,4 A,,4 | G,,4 C,2 C,2 | B,,6 C,2 | B,,4 C,2 C,2 | G,,8 | D,8 | G,,8 |] x8 | %15
 x8 |] %16

